icons/communication/comments-24.svg

<svg width="24" height="24" viewBox="0 0 24 24" fill="none" xmlns="http://www.w3.org/2000/svg">
<g clip-path="url(#clip0_221_601)">
<path fill-rule="evenodd" clip-rule="evenodd" d="M0.512563 1.51256C0.840752 1.18437 1.28587 1 1.75 1H14.25C14.7141 1 15.1592 1.18437 15.4874 1.51256C15.8156 1.84075 16 2.28587 16 2.75V12.25C16 12.7141 15.8156 13.1592 15.4874 13.4874C15.1592 13.8156 14.7141 14 14.25 14H8.061L5.487 16.573C5.28324 16.7767 5.02367 16.9153 4.74111 16.9715C4.45854 17.0277 4.16567 16.9988 3.8995 16.8886C3.63333 16.7784 3.40581 16.5917 3.24571 16.3522C3.08561 16.1127 3.0001 15.8311 3 15.543V14H1.75C0.784 14 0 13.216 0 12.25V2.75C0 2.28587 0.184374 1.84075 0.512563 1.51256ZM1.57322 2.57322C1.52634 2.62011 1.5 2.6837 1.5 2.75V12.25C1.5 12.3163 1.52634 12.3799 1.57322 12.4268C1.62011 12.4737 1.6837 12.5 1.75 12.5H3.75C3.94891 12.5 4.13968 12.579 4.28033 12.7197C4.42098 12.8603 4.5 13.0511 4.5 13.25V15.44L7.22 12.72C7.36052 12.5793 7.55115 12.5002 7.75 12.5H14.25C14.3163 12.5 14.3799 12.4737 14.4268 12.4268C14.4737 12.3799 14.5 12.3163 14.5 12.25V2.75C14.5 2.6837 14.4737 2.62011 14.4268 2.57322C14.3799 2.52634 14.3163 2.5 14.25 2.5H1.75C1.6837 2.5 1.62011 2.52634 1.57322 2.57322Z" fill="black"/>
<path d="M22.4268 8.57322C22.4737 8.62011 22.5 8.6837 22.5 8.75V18.25C22.5 18.3163 22.4737 18.3799 22.4268 18.4268C22.3799 18.4737 22.3163 18.5 22.25 18.5H20.25C20.0511 18.5 19.8603 18.579 19.7197 18.7197C19.579 18.8603 19.5 19.0511 19.5 19.25V21.44L16.78 18.72C16.6395 18.5793 16.4488 18.5002 16.25 18.5H10.75C10.612 18.5 10.5 18.388 10.5 18.25V16.785C10.5 16.5861 10.421 16.3953 10.2803 16.2547C10.1397 16.114 9.94891 16.035 9.75 16.035C9.55109 16.035 9.36032 16.114 9.21967 16.2547C9.07902 16.3953 9 16.5861 9 16.785V18.25C9 18.7141 9.18437 19.1592 9.51256 19.4874C9.84075 19.8156 10.2859 20 10.75 20H15.939L18.513 22.573C18.7168 22.7767 18.9763 22.9153 19.2589 22.9715C19.5415 23.0277 19.8343 22.9988 20.1005 22.8886C20.3667 22.7784 20.5942 22.5917 20.7543 22.3522C20.9144 22.1127 20.9999 21.8311 21 21.543V20H22.25C22.7141 20 23.1592 19.8156 23.4874 19.4874C23.8156 19.1592 24 18.7141 24 18.25V8.75C24 7.784 23.216 7 22.25 7H18.75C18.5511 7 18.3603 7.07902 18.2197 7.21967C18.079 7.36032 18 7.55109 18 7.75C18 7.94891 18.079 8.13968 18.2197 8.28033C18.3603 8.42098 18.5511 8.5 18.75 8.5H22.25C22.3163 8.5 22.3799 8.52634 22.4268 8.57322Z" fill="black"/>
</g>
<defs>
<clipPath id="clip0_221_601">
<rect width="24" height="24" fill="white"/>
</clipPath>
</defs>
</svg>

<svg xmlns="http://www.w3.org/2000/svg" width="24" height="24"><path fill-rule="evenodd" d="M.513 1.513A1.75 1.75 0 011.75 1h12.5A1.75 1.75 0 0116 2.75v9.5A1.75 1.75 0 0114.25 14H8.061l-2.574 2.573A1.457 1.457 0 013 15.543V14H1.75A1.75 1.75 0 010 12.25v-9.5c0-.464.184-.91.513-1.237zm1.06 1.06a.25.25 0 00-.073.177v9.5a.25.25 0 00.25.25h2a.75.75 0 01.75.75v2.19l2.72-2.72a.75.75 0 01.53-.22h6.5a.25.25 0 00.25-.25v-9.5a.25.25 0 00-.25-.25H1.75a.25.25 0 00-.177.073z"/><path d="M22.427 8.573a.25.25 0 01.073.177v9.5a.25.25 0 01-.25.25h-2a.75.75 0 00-.75.75v2.19l-2.72-2.72a.75.75 0 00-.53-.22h-5.5a.25.25 0 01-.25-.25v-1.465a.75.75 0 10-1.5 0v1.465A1.75 1.75 0 0010.75 20h5.189l2.574 2.573A1.457 1.457 0 0021 21.543V20h1.25A1.75 1.75 0 0024 18.25v-9.5A1.75 1.75 0 0022.25 7h-3.5a.75.75 0 100 1.5h3.5a.25.25 0 01.177.073z"/></svg>
